icons/svg/camcorder-off.svg

﻿<?xml version="1.0" encoding="utf-8"?>
<!DOCTYPE svg PUBLIC "-//W3C//DTD SVG 1.1//EN" "http://www.w3.org/Graphics/SVG/1.1/DTD/svg11.dtd">
<svg xmlns="http://www.w3.org/2000/svg" xmlns:xlink="http://www.w3.org/1999/xlink" version="1.1" baseProfile="full" width="24" height="24" viewBox="0 0 24.00 24.00" enable-background="new 0 0 24.00 24.00" xml:space="preserve">
	<path fill="#000000" fill-opacity="1" stroke-width="0.2" stroke-linejoin="round" d="M 3.27227,1.99805L 1.99926,3.27106L 4.72726,5.99805L 3.99926,5.99805C 3.44726,5.99805 2.99926,6.44604 2.99926,6.99805L 2.99926,16.998C 2.99926,17.55 3.44726,17.998 3.99926,17.998L 15.9993,17.998C 16.2043,17.998 16.3853,17.921 16.5433,17.8151L 19.7273,20.998L 20.9993,19.725M 20.9993,6.49805L 16.9993,10.498L 16.9993,6.99805C 16.9993,6.44604 16.5513,5.99805 15.9993,5.99805L 9.81826,5.99805L 20.9993,17.1791L 20.9993,6.49805 Z "/>
</svg>

<svg xmlns="http://www.w3.org/2000/svg" version="1.1" baseProfile="full" width="24" height="24" viewBox="0 0 24.00 24.00" xml:space="preserve"><path fill="#000" fill-opacity="1" stroke-width=".2" stroke-linejoin="round" d="M3.272 1.998L2 3.27 4.726 6H4c-.553 0-1 .448-1 1v10c0 .552.447 1 1 1h12c.204 0 .385-.077.543-.183l3.184 3.183L21 19.725m0-13.227l-4 4v-3.5c0-.552-.45-1-1-1H9.817l11.18 11.18V6.5z"/></svg>
